jsapp/svg-icons/logout.svg

<?xml version="1.0" encoding="UTF-8"?>
<svg width="40px" height="40px" viewBox="0 0 40 40" version="1.1" xmlns="http://www.w3.org/2000/svg" xmlns:xlink="http://www.w3.org/1999/xlink">
    <!-- Generator: Sketch 50.2 (55047) - http://www.bohemiancoding.com/sketch -->
    <title>Icons/logout</title>
    <desc>Created with Sketch.</desc>
    <defs>
        <path d="M26.0005,30 L15.0005,30 C13.8975,30 13.0005,29.103 13.0005,28 L13.0005,25 L15.0005,25 L15.0005,28 L26.0005,28 L26.0005,12 L15.0005,12 L15.0005,15 L13.0005,15 L13.0005,12 C13.0005,10.898 13.8975,10 15.0005,10 L26.0005,10 C27.1035,10 28.0005,10.898 28.0005,12 L28.0005,28 C28.0005,29.103 27.1035,30 26.0005,30 Z M19.707,15.292 L24.415,19.991 L19.708,24.706 L18.292,23.294 L20.582,21 L12,21 L12,19 L20.591,19 L18.294,16.708 L19.707,15.292 Z" id="path-1"></path>
    </defs>
    <g id="Icons/logout" stroke="none" stroke-width="1" fill="none" fill-rule="evenodd">
        <mask id="mask-2" fill="white">
            <use xlink:href="#path-1"></use>
        </mask>
        <use id="Mask" fill="#000000" xlink:href="#path-1"></use>
    </g>
</svg>

<svg height="40" viewBox="0 0 40 40" width="40" xmlns="http://www.w3.org/2000/svg"><path d="m26.0005 30h-11c-1.103 0-2-.897-2-2v-3h2v3h11v-16h-11v3h-2v-3c0-1.102.897-2 2-2h11c1.103 0 2 .898 2 2v16c0 1.103-.897 2-2 2zm-6.2935-14.708 4.708 4.699-4.707 4.715-1.416-1.412 2.29-2.294h-8.582v-2h8.591l-2.297-2.292z" fill-rule="evenodd"/></svg>
